X:1
T: The Stewart's Ranting
C:Bruce Shawyer (Simplified from The Stewart's Rant)
R:Reel
Q:232
K:A
M:4/4
L:1/8
|:e2|"A"c2cd e2ce|"Bm"dB fB "E7"b2de|"A"c2cd e2ce|"E7"dB ge "A"a2A2|
"A"c2cd e2ce|"Bm"dB fB "E7"b2de|"A"c2cd e2ce|"E7"dB ge "A"a2A2|
"A"c2A2 cA eA|"E7"B2E2 BE Bd|"A"c2A2 cA eA|"E7"B2E2 ed cB|
"A"cA eA "D"fA "A"eA|"E7"G2E2 GA Bd|"A"cA dB "Bm"ec dB|"E7"cA BG "A"A2:|
